X:1
T:[ID 2-125a]
T:[ID 2-125a]
T:Bezeichnung standardisiert: Polonaise Polonoise
T:Urheber unbekannt Datum in der hier transkribierten schriftlichen Quelle: 1767
C:Urheber unbekannt
C:Datum in der hier transkribierten schriftlichen Quelle: 1767
L:1/8
M:3/4
K:D
V:1 treble 
V:1
 d2 Dd Dd/e/ | f2 Df Df/e/ | f a2 gfa | gg/f/{f} e4 |"^F" A,3 g/e/fd |"^O)" A,3 g/e/fd | %6
"^O)" A,3 g/e/fd | c/d/e/c/ d2 D2 :: eccc cB/c/ | dBBB BA/B/ | cB/c/ dc/d/ e>d | c/B/A/^G/ A2 A,2 | %12
 d f2 d2 B | e g2 e2 c | f a2 gfa | gg/f/{f} e4"^2)""^F" | x6 | %17

